src/app/assets/icons/idea.svg

<svg width="24" height="24" viewBox="0 0 24 24" fill="none" xmlns="http://www.w3.org/2000/svg">
<path d="M12.0234 22.0469C11.4734 22.0469 11.0026 21.851 10.6109 21.4594C10.2193 21.0677 10.0234 20.5969 10.0234 20.0469H14.0234C14.0234 20.5969 13.8276 21.0677 13.4359 21.4594C13.0443 21.851 12.5734 22.0469 12.0234 22.0469ZM8.02344 19.0469V17.0469H16.0234V19.0469H8.02344ZM8.27344 16.0469C7.12344 15.3635 6.21094 14.4469 5.53594 13.2969C4.86094 12.1469 4.52344 10.8969 4.52344 9.54688C4.52344 7.46354 5.2526 5.69271 6.71094 4.23438C8.16927 2.77604 9.9401 2.04688 12.0234 2.04688C14.1068 2.04688 15.8776 2.77604 17.3359 4.23438C18.7943 5.69271 19.5234 7.46354 19.5234 9.54688C19.5234 10.8969 19.1859 12.1469 18.5109 13.2969C17.8359 14.4469 16.9234 15.3635 15.7734 16.0469H8.27344ZM8.87344 14.0469H15.1734C15.9234 13.5135 16.5026 12.8552 16.9109 12.0719C17.3193 11.2885 17.5234 10.4469 17.5234 9.54688C17.5234 8.01354 16.9901 6.71354 15.9234 5.64688C14.8568 4.58021 13.5568 4.04688 12.0234 4.04688C10.4901 4.04688 9.1901 4.58021 8.12344 5.64688C7.05677 6.71354 6.52344 8.01354 6.52344 9.54688C6.52344 10.4469 6.7276 11.2885 7.13594 12.0719C7.54427 12.8552 8.12344 13.5135 8.87344 14.0469Z" fill="currentColor"/>
</svg>

<svg xmlns="http://www.w3.org/2000/svg" width="24" height="24" fill="none"><path fill="currentColor" d="M12.023 22.047q-.824 0-1.412-.588a1.93 1.93 0 0 1-.588-1.412h4q0 .825-.587 1.412a1.93 1.93 0 0 1-1.413.588m-4-3v-2h8v2zm.25-3a7.66 7.66 0 0 1-2.737-2.75 7.3 7.3 0 0 1-1.013-3.75q0-3.124 2.188-5.313 2.188-2.187 5.312-2.187 3.126 0 5.313 2.187 2.187 2.189 2.187 5.313 0 2.025-1.012 3.75a7.66 7.66 0 0 1-2.738 2.75zm.6-2h6.3a5.55 5.55 0 0 0 1.738-1.975 5.4 5.4 0 0 0 .612-2.525q0-2.3-1.6-3.9-1.599-1.6-3.9-1.6-2.3 0-3.9 1.6t-1.6 3.9q0 1.35.613 2.525a5.55 5.55 0 0 0 1.737 1.975"/></svg>
